X:1
T:Title
%%score ( 1 2 ) 3
L:1/8
Q:1/4=112
M:4/4
K:G
V:1 treble nm="Grand Piano, Unnamed-000"
V:2 treble 
V:3 bass nm="Choir Pad, Pleyel�s Hymn, 77.77"
V:1
 [DB]2 [Dd]2 [DA]3 [DB] | [Ec]2 [DA]2 [DB]4 | [DB]2 [Dd]2 [DA]3 [DB] | [Ec]2 [CA]2 [B,G]4 | %4
w: By~Ignaz~Joseph~Pleyel,~1791 * * *||||
 [DA]2 [^DB]2 [EG]3 [EA] | [DF]2 [^CE]2 D4 | [DB]2 [Dd]2 [DA]3 [DB] | [Ec]2 A-[CA] [B,G]4- | %8
w: ||||
 [B,G]4 z4 |] %9
w: |
V:2
 x8 | x8 | x8 | x8 | x8 | x8 | x8 | z2 .D2 z4 | x8 |] %9
V:3
 [G,,G,]2 [B,,G,]2 [D,F,]3 [B,,G,] | [A,,G,]2 [D,F,]2 [G,,G,]4 | %2
 [G,,G,]2 [B,,G,]2 [D,F,]3 [B,,G,] | [A,,G,]2 [D,F,]2 [G,,G,]4 | [D,F,]2 [B,,B,]2 [E,B,]3 [^C,A,] | %5
 [D,A,]2 [A,,G,]2 [D,F,]4 | [G,,G,]2 [B,,G,]2 [D,F,]3 G, | [C,G,]2 [D,F,]2 [G,,G,]4- | %8
 [G,,G,]4 z4 |] %9

